papirus/22x22/apps/vym.svg

<svg height="22" width="22" xmlns="http://www.w3.org/2000/svg"><g transform="translate(-.99911111 -1)"><rect fill="#4d4d4d" height="20" rx="10" transform="matrix(0 -1 -1 0 0 0)" width="20" x="-22" y="-22"/><path d="m14.667969 6.4902344c-.07723 0-.152012.00873-.228516.011719-.143819.0025-.288459.00967-.431641.023437-2.834156.2541368-5.0055418 2.6290813-5.007812 5.4746096.00103.09024.0043.181408.00977.271484-.0001405.01803-.00195.03466-.00195.05274v.779297l-.00782.396479-1.3808594 2.056641c-.300195.572249-.015209.929021.6289063.9375l.7597656.0098v.002 1.09375.654297c0 .672312.5511224 1.226563 1.2265625 1.226563l.765625.019449v2.451172c.328875.032372.662335.048828 1 .048828 2.26274 0 4.337657-.752024 6.009766-2.009766v-3.490234c0-.256417-.0063-.492011-.01953-.712891 1.469097-.74203 2.007345-2.376459 2.009764-3.787109-.003-2.8792454-2.226123-5.2678903-5.097656-5.4785156-.08221-.01973-.161236-.03125-.234375-.03125z" opacity=".2"/><path d="m14.667969 5.9902344c-.07723 0-.152012.00873-.228516.011719-.143819.0025-.28846.00967-.431641.023437-2.834157.2541366-5.0055418 2.6290813-5.007812 5.4746096.00103.09024.0043.181408.00977.271484-.0001405.01803-.00195.03467-.00195.05274v.779297l-.00782.396479-1.3808594 2.056641c-.300195.572249-.015209.929021.6289063.9375l.7597656.0098v.002 1.09375.654297c0 .672312.5511224 1.226563 1.2265625 1.226563l.765625.019449v2.951172c.328875.032372.662335.048828 1 .048828 2.26274 0 4.337657-.752024 6.009766-2.009766v-3.990234c0-.256417-.0063-.492011-.01953-.712891 1.469099-.742028 2.007345-2.376459 2.009764-3.787109-.003-2.8792454-2.226123-5.2678903-5.097656-5.4785156-.08221-.01973-.161236-.03125-.234375-.03125z" fill="#6084ff"/><path d="m12 2c-5.54 0-10 4.46-10 10 0 .084-.002.1665 0 .25.1322-5.423 4.544-9.75 10-9.75 5.456 0 9.868 4.327 10 9.75.002-.0835 0-.166 0-.25 0-5.54-4.46-10-10-10z" fill="#fff" opacity=".1"/><path d="m2.00585 11.75c-.00205.0835-.00585.166-.00585.25 0 5.54 4.46 10 10 10 5.54 0 10-4.46 10-10 0-.084-.004-.1665-.006-.25-.132 5.423-4.538 9.75-9.994 9.75-5.456 0-9.862-4.327-9.994-9.75z" opacity=".3"/><g opacity=".2" transform="matrix(.5 0 0 .5 1 0)"><path d="m28 17a6 6 0 0 0 -6 6 6 6 0 0 0  6 6 6 6 0 0 0  6-6 6 6 0 0 0 -6-6zm0 2a4 4 0 0 1 4 4 4 4 0 0 1 -4 4 4 4 0 0 1 -4-4 4 4 0 0 1  4-4z" opacity="1"/><circle cx="28" cy="23" opacity="1" r="2"/></g><g fill="#fff" transform="matrix(.5 0 0 .5 1 -.5)"><path d="m28 17a6 6 0 0 0 -6 6 6 6 0 0 0  6 6 6 6 0 0 0  6-6 6 6 0 0 0 -6-6zm0 2a4 4 0 0 1 4 4 4 4 0 0 1 -4 4 4 4 0 0 1 -4-4 4 4 0 0 1  4-4z"/><circle cx="28" cy="23" r="2"/></g></g></svg>

<?xml version="1.0" encoding="UTF-8" standalone="no"?>
<!-- Created with Inkscape (http://www.inkscape.org/) -->

<svg
   xmlns:dc="http://purl.org/dc/elements/1.1/"
   xmlns:cc="http://creativecommons.org/ns#"
   xmlns:rdf="http://www.w3.org/1999/02/22-rdf-syntax-ns#"
   xmlns:svg="http://www.w3.org/2000/svg"
   xmlns="http://www.w3.org/2000/svg"
   xmlns:sodipodi="http://sodipodi.sourceforge.net/DTD/sodipodi-0.dtd"
   xmlns:inkscape="http://www.inkscape.org/namespaces/inkscape"
   id="svg2817"
   height="22"
   width="22"
   version="1.0"
   inkscape:version="0.91 r13725"
   sodipodi:docname="vym22.svg">
  <defs
     id="defs18" />
  <sodipodi:namedview
     pagecolor="#ffffff"
     bordercolor="#666666"
     borderopacity="1"
     objecttolerance="10"
     gridtolerance="10"
     guidetolerance="10"
     inkscape:pageopacity="0"
     inkscape:pageshadow="2"
     inkscape:window-width="1600"
     inkscape:window-height="849"
     id="namedview16"
     showgrid="false"
     inkscape:zoom="17.31"
     inkscape:cx="18.357763"
     inkscape:cy="9.5581496"
     inkscape:window-x="0"
     inkscape:window-y="0"
     inkscape:window-maximized="1"
     inkscape:current-layer="svg2817"
     inkscape:snap-grids="true"
     inkscape:snap-page="true">
    <inkscape:grid
       type="xygrid"
       id="grid4150" />
  </sodipodi:namedview>
  <metadata
     id="metadata57">
    <rdf:RDF>
      <cc:Work
         rdf:about="">
        <dc:format>image/svg+xml</dc:format>
        <dc:type
           rdf:resource="http://purl.org/dc/dcmitype/StillImage" />
        <dc:title></dc:title>
      </cc:Work>
    </rdf:RDF>
  </metadata>
  <g
     id="layer7"
     display="none"
     transform="translate(-52.273,-28.186)"
     style="display:none">
    <rect
       id="rect4169"
       display="inline"
       rx="9"
       ry="9"
       height="44"
       width="44"
       y="2"
       x="2"
       style="display:inline;fill:#abe1ad" />
  </g>
  <g
     id="g4243"
     transform="translate(-0.99911111,-1)">
    <rect
       x="-22"
       y="-22"
       width="20"
       height="20"
       transform="matrix(0,-1,-1,0,0,0)"
       rx="10"
       ry="10"
       id="rect4203"
       style="fill:#4d4d4d;fill-opacity:1" />
    <path
       id="path4232"
       d="m 14.667969,6.4902344 c -0.07723,0 -0.152012,0.00873 -0.228516,0.011719 -0.143819,0.0025 -0.288459,0.00967 -0.431641,0.023437 C 11.173656,6.7795272 9.0022702,9.1544717 9,12 c 0.00103,0.09024 0.0043,0.181408 0.00977,0.271484 -1.405e-4,0.01803 -0.00195,0.03466 -0.00195,0.05274 l 0,0.779297 L 9,13.5 7.6191406,15.556641 c -0.300195,0.572249 -0.015209,0.929021 0.6289063,0.9375 l 0.7597656,0.0098 0,0.002 0,1.09375 0,0.654297 c 0,0.672312 0.5511224,1.226563 1.2265625,1.226563 L 11,19.5 11,21.951172 C 11.328875,21.983544 11.662335,22 12,22 c 2.26274,0 4.337657,-0.752024 6.009766,-2.009766 l 0,-3.490234 c 0,-0.256417 -0.0063,-0.492011 -0.01953,-0.712891 C 19.459333,15.045079 19.997581,13.41065 20,12 19.997,9.1207546 17.773877,6.7321097 14.902344,6.5214844 c -0.08221,-0.01973 -0.161236,-0.03125 -0.234375,-0.03125 z"
       style="opacity:0.2;fill:#000000;fill-opacity:1"
       inkscape:connector-curvature="0" />
    <path
       id="path4171"
       d="m 14.667969,5.9902344 c -0.07723,0 -0.152012,0.00873 -0.228516,0.011719 -0.143819,0.0025 -0.28846,0.00967 -0.431641,0.023437 C 11.173655,6.279527 9.0022702,8.6544717 9,11.5 c 0.00103,0.09024 0.0043,0.181408 0.00977,0.271484 -1.405e-4,0.01803 -0.00195,0.03467 -0.00195,0.05274 l 0,0.779297 L 9,13 7.6191406,15.056641 c -0.300195,0.572249 -0.015209,0.929021 0.6289063,0.9375 l 0.7597656,0.0098 0,0.002 0,1.09375 0,0.654297 c 0,0.672312 0.5511224,1.226563 1.2265625,1.226563 L 11,19 11,21.951172 C 11.328875,21.983544 11.662335,22 12,22 c 2.26274,0 4.337657,-0.752024 6.009766,-2.009766 l 0,-3.990234 c 0,-0.256417 -0.0063,-0.492011 -0.01953,-0.712891 C 19.459335,14.545081 19.997581,12.91065 20,11.5 19.997,8.6207546 17.773877,6.2321097 14.902344,6.0214844 c -0.08221,-0.01973 -0.161236,-0.03125 -0.234375,-0.03125 z"
       style="fill:#6084ff;fill-opacity:1"
       inkscape:connector-curvature="0" />
    <path
       style="opacity:0.1;fill:#ffffff"
       d="M 12,2 C 6.46,2 2,6.46 2,12 2,12.084 1.998,12.1665 2,12.25 2.1322,6.827 6.544,2.5 12,2.5 c 5.456,0 9.868,4.327 10,9.75 C 22.002,12.1665 22,12.084 22,12 22,6.46 17.54,2 12,2 Z"
       id="rect3436-2"
       inkscape:connector-curvature="0" />
    <path
       d="M 2.00585,11.75 C 2.0038,11.8335 2,11.916 2,12 2,17.54 6.46,22 12,22 17.54,22 22,17.54 22,12 22,11.916 21.996,11.8335 21.994,11.75 21.862,17.173 17.456,21.5 12,21.5 6.544,21.5 2.138,17.173 2.006,11.75 Z"
       id="rect4218"
       inkscape:connector-curvature="0"
       style="opacity:0.3" />
    <g
       style="opacity:0.2;fill:#000000;fill-opacity:1"
       id="g4234"
       transform="matrix(0.5,0,0,0.5,1,0)">
      <path
         inkscape:connector-curvature="0"
         id="path4236"
         d="m 28,17 a 6,6 0 0 0 -6,6 6,6 0 0 0 6,6 6,6 0 0 0 6,-6 6,6 0 0 0 -6,-6 z m 0,2 a 4,4 0 0 1 4,4 4,4 0 0 1 -4,4 4,4 0 0 1 -4,-4 4,4 0 0 1 4,-4 z"
         style="opacity:1;fill:#000000;fill-opacity:1;stroke:none;stroke-width:4;stroke-linecap:round;stroke-linejoin:round;stroke-miterlimit:4;stroke-dasharray:none;stroke-opacity:1" />
      <circle
         r="2"
         cy="23"
         cx="28"
         id="circle4238"
         style="opacity:1;fill:#000000;fill-opacity:1;stroke:none;stroke-width:4;stroke-linecap:round;stroke-linejoin:round;stroke-miterlimit:4;stroke-dasharray:none;stroke-opacity:1" />
    </g>
    <g
       transform="matrix(0.5,0,0,0.5,1,-0.5)"
       id="g4169">
      <path
         style="opacity:1;fill:#ffffff;fill-opacity:1;stroke:none;stroke-width:4;stroke-linecap:round;stroke-linejoin:round;stroke-miterlimit:4;stroke-dasharray:none;stroke-opacity:1"
         d="m 28,17 a 6,6 0 0 0 -6,6 6,6 0 0 0 6,6 6,6 0 0 0 6,-6 6,6 0 0 0 -6,-6 z m 0,2 a 4,4 0 0 1 4,4 4,4 0 0 1 -4,4 4,4 0 0 1 -4,-4 4,4 0 0 1 4,-4 z"
         id="path4155"
         inkscape:connector-curvature="0" />
      <circle
         style="opacity:1;fill:#ffffff;fill-opacity:1;stroke:none;stroke-width:4;stroke-linecap:round;stroke-linejoin:round;stroke-miterlimit:4;stroke-dasharray:none;stroke-opacity:1"
         id="path4167"
         cx="28"
         cy="23"
         r="2" />
    </g>
  </g>
</svg>
